icons/vomitting.svg

<svg width="48" height="48" viewBox="0 0 48 48" fill="none" xmlns="http://www.w3.org/2000/svg">
<path d="M16.5547 20.1679C16.1341 19.8875 15.5703 19.9651 15.2411 20.3488C14.9119 20.7325 14.9208 21.3015 15.2619 21.6747C15.6039 22.0489 16.061 22.4024 16.4025 22.6665C16.4902 22.7344 16.5704 22.7963 16.6389 22.8512C16.7179 22.9144 16.7843 22.9697 16.8399 23.0183C16.7916 23.0606 16.7344 23.1083 16.6672 23.1621C16.587 23.2264 16.4873 23.3023 16.376 23.3871C16.0456 23.6387 15.6131 23.9681 15.288 24.2978C14.9279 24.663 14.9024 25.2413 15.2289 25.6367C15.5554 26.0321 16.128 26.1165 16.5547 25.8321L19.5547 23.8321C19.8329 23.6466 20 23.3344 20 23C20 22.6656 19.8329 22.3534 19.5547 22.1679L16.5547 20.1679Z" fill="black"/>
<path d="M32.7589 20.3488C32.4297 19.9651 31.8659 19.8875 31.4453 20.1679L28.4453 22.1679C28.1671 22.3534 28 22.6656 28 23C28 23.3344 28.1671 23.6466 28.4453 23.8321L31.4453 25.8321C31.872 26.1165 32.4446 26.0321 32.7711 25.6367C33.0976 25.2413 33.0721 24.663 32.712 24.2978C32.3869 23.9681 31.9549 23.6391 31.6245 23.3874C31.5131 23.3026 31.4131 23.2264 31.3328 23.1621C31.2656 23.1083 31.2084 23.0606 31.1601 23.0183C31.2157 22.9697 31.2821 22.9144 31.3611 22.8512C31.4296 22.7963 31.5097 22.7344 31.5975 22.6665C31.9389 22.4024 32.3961 22.0489 32.7381 21.6747C33.0792 21.3015 33.0881 20.7325 32.7589 20.3488Z" fill="black"/>
<path fill-rule="evenodd" clip-rule="evenodd" d="M35.6606 37.7129C39.5395 34.4113 42 29.493 42 24C42 14.0589 33.9411 6 24 6C14.0589 6 6 14.0589 6 24C6 29.493 8.46046 34.4113 12.3394 37.7129C12.1549 37.8118 11.9842 37.9182 11.8314 38.0333C11.4536 38.3179 11 38.8011 11 39.5C11 40.0213 11.2581 40.4273 11.5304 40.7046C11.7994 40.9785 12.1447 41.1946 12.5012 41.3702C13.218 41.7233 14.1906 42.0134 15.3108 42.2467C17.5675 42.7169 20.639 43 24 43C27.361 43 30.4325 42.7169 32.6892 42.2467C33.8094 42.0134 34.782 41.7233 35.4988 41.3702C35.8553 41.1946 36.2006 40.9785 36.4696 40.7046C36.7419 40.4273 37 40.0213 37 39.5C37 38.8011 36.5464 38.3179 36.1686 38.0333C36.0158 37.9182 35.8451 37.8118 35.6606 37.7129ZM33.4357 36.923C37.4152 34.0124 40 29.308 40 24C40 15.1634 32.8366 8 24 8C15.1634 8 8 15.1634 8 24C8 29.291 10.5683 33.9822 14.5262 36.895L14.4953 36.9402C15.2344 36.7536 16.0785 36.5922 17 36.4583V35.1648C16.4739 34.513 16.1348 33.7799 16.0326 33L16.0307 32.9851C16.0216 32.9139 16.0146 32.8424 16.0095 32.7705C16.0032 32.6809 16 32.5907 16 32.5C16 30.9887 16.8867 29.6197 18.3219 28.6256L18.343 28.611C19.7907 27.6157 21.7909 27 24 27C26.2091 27 28.2091 27.6156 29.6569 28.6109C30.3509 29.0881 30.918 29.6525 31.3204 30.2781C31.3377 30.305 31.3546 30.332 31.3713 30.3592C31.7761 31.0172 32 31.7406 32 32.5C32 32.5907 31.9968 32.6809 31.9905 32.7705L31.9901 32.7762C31.9847 32.8512 31.9771 32.9258 31.9674 33L31.9651 33.017C31.8602 33.7906 31.5223 34.5177 31 35.1648V36.4583C31.8929 36.5881 32.7132 36.7436 33.4357 36.923ZM29.99 32.3136C29.9228 31.68 29.5081 30.9357 28.5238 30.259C27.45 29.5208 25.8567 29 24 29C22.1433 29 20.55 29.5208 19.4762 30.259C18.4919 30.9357 18.0772 31.68 18.01 32.3136C18.4618 32.0099 19.0261 31.7917 19.6074 31.6302C20.8488 31.2854 22.446 31.125 24 31.125C25.554 31.125 27.1512 31.2854 28.3926 31.6302C28.9739 31.7917 29.5382 32.0099 29.99 32.3136ZM18.976 34.1014C18.9756 34.1014 18.9771 34.0987 18.9813 34.0933C18.9784 34.0987 18.9763 34.1014 18.976 34.1014ZM19.0969 33.9934C19.0484 34.0281 19.0181 34.0546 19 34.0727V38.2212L18.1196 38.3273C16.3603 38.5393 14.9416 38.8382 13.9882 39.1752C13.6611 39.2907 13.4155 39.4017 13.2396 39.5C13.2826 39.524 13.3309 39.5494 13.3849 39.576C13.8825 39.8211 14.6672 40.0697 15.7187 40.2888C17.8051 40.7235 20.7335 41 24 41C27.2665 41 30.1949 40.7235 32.2813 40.2888C33.3328 40.0697 34.1175 39.8211 34.6151 39.576C34.6691 39.5494 34.7174 39.524 34.7604 39.5C34.5845 39.4017 34.3389 39.2907 34.0118 39.1752C33.0584 38.8382 31.6397 38.5393 29.8804 38.3273L29 38.2212V34.0727C28.9819 34.0546 28.9516 34.028 28.9031 33.9934C28.7105 33.8558 28.3683 33.6992 27.8574 33.5573C27.596 33.4847 27.3082 33.4207 27 33.3657V38C27 38.5523 26.5523 39 26 39C25.4477 39 25 38.5523 25 38V33.1495C24.672 33.1333 24.3372 33.125 24 33.125C23.6628 33.125 23.328 33.1333 23 33.1495V38C23 38.5523 22.5523 39 22 39C21.4477 39 21 38.5523 21 38V33.3657C20.6918 33.4207 20.404 33.4847 20.1426 33.5573C19.6317 33.6992 19.2895 33.8558 19.0969 33.9934ZM12.9422 39.7126C12.9431 39.7114 12.9451 39.7089 12.9484 39.7053L12.9422 39.7126ZM12.9484 39.7053C12.9461 39.7085 12.9444 39.7108 12.9432 39.7121L12.9484 39.7053ZM12.9432 39.7121C12.9424 39.7131 12.9418 39.7136 12.9417 39.7136L12.9432 39.7121ZM35.0516 39.7053L35.0554 39.7105C35.0571 39.7126 35.0581 39.7136 35.0583 39.7136C35.0585 39.7136 35.0579 39.7127 35.0565 39.7109L35.0516 39.7053ZM29.0187 34.0933C29.0229 34.0986 29.0244 34.1014 29.024 34.1014C29.0231 34.1004 29.0208 34.0974 29.0187 34.0933Z" fill="black"/>
</svg>

<svg
  xmlns="http://www.w3.org/2000/svg"
  width="24"
  height="24"
  viewBox="0 0 24 24"
  fill="none"
  stroke="currentColor"
  stroke-width="2"
  stroke-linecap="round"
  stroke-linejoin="round"
>
  <path d="M16.555 20.168a1 1 0 0 0-1.293 1.507c.342.374.799.727 1.14.991l.237.185q.118.095.2.167-.071.064-.172.144c-.08.064-.18.14-.291.225-.33.252-.763.581-1.088.91a1 1 0 0 0 1.267 1.535l3-2a1 1 0 0 0 0-1.664z" />
  <path d="M32.759 20.349a1 1 0 0 0-1.314-.181l-3 2a1 1 0 0 0 0 1.664l3 2a1 1 0 0 0 1.267-1.534c-.325-.33-.757-.659-1.088-.91a16 16 0 0 1-.291-.226 5 5 0 0 1-.173-.144q.083-.072.201-.167l.236-.184c.342-.265.8-.618 1.141-.992a1 1 0 0 0 .02-1.326" />
  <path
    fill-rule="evenodd"
    d="M35.66 37.713A17.96 17.96 0 0 0 42 24c0-9.941-8.059-18-18-18S6 14.059 6 24a17.96 17.96 0 0 0 6.34 13.713 4 4 0 0 0-.509.32c-.377.285-.831.768-.831 1.467 0 .521.258.927.53 1.205.27.273.615.49.971.665.717.353 1.69.643 2.81.877 2.256.47 5.328.753 8.689.753s6.433-.283 8.69-.753c1.12-.234 2.092-.524 2.809-.877.356-.175.702-.392.97-.665.273-.278.531-.684.531-1.205 0-.699-.454-1.182-.831-1.467a4 4 0 0 0-.508-.32m-2.224-.79C37.416 34.013 40 29.308 40 24c0-8.837-7.163-16-16-16S8 15.163 8 24c0 5.291 2.568 9.982 6.526 12.895l-.03.045c.738-.186 1.582-.348 2.504-.482v-1.293c-.526-.652-.865-1.385-.967-2.165l-.002-.015A4 4 0 0 1 16 32.5c0-1.511.887-2.88 2.322-3.874l.021-.015C19.791 27.616 21.791 27 24 27s4.21.616 5.657 1.61c.694.478 1.261 1.043 1.663 1.668l.051.081a4.06 4.06 0 0 1 .62 2.411v.006a4 4 0 0 1-.024.224l-.002.017c-.105.774-.443 1.5-.965 2.148v1.293c.893.13 1.713.286 2.436.465m-3.446-4.61c-.067-.633-.482-1.377-1.466-2.054C27.45 29.521 25.857 29 24 29s-3.45.52-4.524 1.259c-.984.677-1.399 1.421-1.466 2.055.452-.304 1.016-.522 1.597-.684 1.242-.345 2.839-.505 4.393-.505s3.151.16 4.393.505c.58.162 1.145.38 1.597.684m-11.014 1.788.005-.008zm.12-.108a1 1 0 0 0-.096.08v4.148l-.88.106c-1.76.212-3.178.511-4.132.848a5 5 0 0 0-.748.325 3 3 0 0 0 .145.076c.498.245 1.282.494 2.334.713 2.086.434 5.015.711 8.281.711s6.195-.276 8.281-.711c1.052-.22 1.837-.468 2.334-.713a3 3 0 0 0 .145-.076 5 5 0 0 0-.748-.325c-.954-.337-2.372-.636-4.132-.848l-.88-.106v-4.148a1 1 0 0 0-.097-.08c-.192-.137-.535-.294-1.046-.436a9 9 0 0 0-.857-.191V38a1 1 0 1 1-2 0v-4.85a20 20 0 0 0-2 0V38a1 1 0 1 1-2 0v-4.634a9 9 0 0 0-.857.191c-.511.142-.854.299-1.046.436m-6.154 5.72.006-.008zm.006-.008-.005.007zm-.005.007-.001.002zm22.109-.007.003.006.003.003-.002-.003zm-6.033-5.612.005.008z"
    clip-rule="evenodd"
  />
</svg>
